real_estate_agency/static/img/icon/map.svg

<?xml version="1.0" encoding="UTF-8"?>
<svg width="246px" height="260px" viewBox="0 0 246 260" version="1.1" xmlns="http://www.w3.org/2000/svg" xmlns:xlink="http://www.w3.org/1999/xlink">
    <!-- Generator: Sketch 47 (45396) - http://www.bohemiancoding.com/sketch -->
    <title>map</title>
    <desc>Created with Sketch.</desc>
    <defs></defs>
    <g id="Page-1" stroke="none" stroke-width="1" fill="none" fill-rule="evenodd" opacity="0.415024909">
        <g id="zhk" transform="translate(-1194.000000, -593.000000)" fill-rule="nonzero" fill="#FFFFFF">
            <g id="Group" transform="translate(0.000000, 572.000000)">
                <g id="map" transform="translate(1194.000000, 21.000000)">
                    <path d="M194.567495,97.0903809 C192.65679,98.2652423 190.123597,97.6822666 188.938986,95.7886566 C187.752662,93.8954709 188.341329,91.3849419 190.251605,90.2100806 L255.747719,49.6105382 C257.658423,48.4271911 260.182198,49.0186525 261.376227,50.9122626 C261.79493,51.5800963 261.991009,52.3153924 261.991009,53.0511127 L262,53.0511127 L262,207.266833 C262,208.78834 261.147611,210.115098 259.893216,210.816875 L186.456311,259.327744 C185.236166,260.130927 183.735602,260.189054 182.489769,259.62305 L182.489769,259.631961 L78.1433742,211.889482 L6.36115808,259.318834 C4.4847031,260.562006 1.93438543,260.054554 0.688981024,258.195736 C0.151688986,257.392129 -0.0615153438,256.471418 0.0151183412,255.583802 L0.0664928786,102.812792 C0.0664928786,101.333714 0.868363783,100.040475 2.07095608,99.3386981 L2.06239366,99.3302123 L59.3193156,65.8057198 C61.2552794,64.6732875 63.7632131,65.307178 64.9144308,67.2258212 C66.0570862,69.1529503 65.4174732,71.6380217 63.472947,72.7708783 L8.22091633,105.128995 L8.16996991,248.372554 L75.4911637,203.884811 L75.4997262,203.893297 C76.6428096,203.132543 78.1438024,202.971737 79.4744029,203.58017 L183.846057,251.314587 L253.811755,205.102526 L253.811755,60.3620682 L194.567495,97.0903809 Z" id="Shape"></path>
                    <path d="M130.504723,0 C146.373366,0 160.745146,6.36561804 171.147188,16.6458302 L171.155776,16.6543171 L171.164794,16.6458302 C181.567265,26.9175554 188,41.1373981 188,56.828025 C188,72.7299762 179.009372,91.6248415 167.63089,109.395189 C156.433183,126.895228 143.010791,143.245289 133.669349,154.514228 C132.231741,156.247258 129.640355,156.501017 127.894873,155.081155 C127.586999,154.827396 127.322063,154.540113 127.107796,154.22737 C117.723415,142.906237 104.386472,126.624496 93.3429169,109.370153 C81.9738817,91.5913181 73,72.7049398 73,56.819538 C73,41.1289112 79.4417519,26.9175554 89.8356359,16.6377676 C100.247125,6.36561804 114.627922,0 130.504723,0 L130.504723,0 Z M165.372713,22.3778993 C156.450788,13.5773825 144.123348,8.12453323 130.513311,8.12453323 C116.902845,8.12453323 104.575835,13.5773825 95.6616384,22.3863862 C86.7474423,31.1953899 81.2215854,43.377522 81.2215854,56.819538 C81.2215854,70.9464489 89.6308155,88.3955666 100.281476,105.058371 C109.98232,120.216443 121.548017,134.690045 130.496135,145.544822 C139.461,134.663735 151.061048,120.157034 160.719382,105.07492 C171.378202,88.4290899 179.79602,70.9629984 179.79602,56.8191137 C179.79602,43.3690351 174.278321,31.1864787 165.364984,22.3774749 L165.372713,22.3778993 L165.372713,22.3778993 Z" id="Shape"></path>
                    <path d="M131.500213,32 C138.260748,32 144.400634,34.7468378 148.822855,39.1772075 L148.822855,39.1942818 C153.253186,43.6250784 156,49.7564813 156,56.5 C156,63.2439456 153.252332,69.3753485 148.822855,73.8057182 L148.805781,73.8227925 C144.375023,78.2531622 138.243673,81 131.500213,81 C124.739679,81 118.599366,78.2531622 114.177145,73.8227925 C109.746814,69.4005331 107,63.2605931 107,56.4995731 C107,49.7475172 109.746814,43.6242247 114.177145,39.193855 L114.177145,39.1767806 C118.60833,34.7472646 124.739252,32 131.500213,32 L131.500213,32 Z M143.056894,44.943219 L143.04793,44.9521831 C140.097079,42.0013067 136.006952,40.1730696 131.49936,40.1730696 C126.992195,40.1730696 122.90164,42.0013067 119.95079,44.9521831 L119.942253,44.943219 C116.999512,47.9026326 115.171291,51.9846853 115.171291,56.5004269 C115.171291,61.0076312 116.999512,65.0982211 119.95079,68.0490975 C122.90164,70.9999739 126.992195,72.828211 131.49936,72.828211 C136.006952,72.828211 140.088115,71.0080842 143.04793,68.065745 L143.064577,68.0486706 C146.007744,65.0973674 147.827002,61.0072043 147.827002,56.5 C147.836392,51.9846853 146.007744,47.8940954 143.056894,44.943219 Z" id="Shape"></path>
                    <path d="M188.981136,255.964412 C188.981136,258.193501 186.970237,260 184.49104,260 C182.010428,260 180,258.192653 180,255.964412 L180.018864,110.036436 C180.018864,107.806923 182.030235,106 184.509432,106 C186.990044,106 189,107.807347 189,110.036436 L188.981136,255.964412 Z" id="Shape"></path>
                    <path d="M81.9722062,205.948157 C81.9722062,208.186606 79.9639885,210 77.4861031,210 C75.0086888,210 73,208.185755 73,205.948157 L73.0282649,110.051843 C73.0282649,107.81382 75.0364826,106 77.5138969,106 C79.9917823,106 82,107.81382 82,110.051843 L81.9722062,205.948157 Z" id="Shape"></path>
                </g>
            </g>
        </g>
    </g>
</svg>

<svg width="246" height="260" viewBox="0 0 246 260" xmlns="http://www.w3.org/2000/svg"><title>map</title><g fill="#FFF" opacity=".415"><path d="M194.567 97.09c-1.91 1.175-4.443.592-5.628-1.301a4.04 4.04 0 0 1 1.313-5.579l65.496-40.6a4.114 4.114 0 0 1 5.628 1.302c.419.668.615 1.403.615 2.14H262v154.215c0 1.521-.852 2.848-2.107 3.55l-73.437 48.51a4.113 4.113 0 0 1-3.966.296v.009L78.143 211.889 6.361 259.32c-1.876 1.243-4.427.736-5.672-1.123a4.055 4.055 0 0 1-.674-2.612l.051-152.771c0-1.48.802-2.773 2.005-3.474l-.009-.009L59.32 65.806c1.936-1.133 4.444-.499 5.595 1.42a4.03 4.03 0 0 1-1.441 5.545L8.22 105.129l-.05 143.244 67.321-44.488.009.008a4.098 4.098 0 0 1 3.974-.313l104.372 47.735 69.966-46.212V60.363L194.567 97.09z"/><path d="M130.505 0c15.868 0 30.24 6.366 40.642 16.646l.009.008.009-.008C181.567 26.918 188 41.137 188 56.828c0 15.902-8.99 34.797-20.37 52.567-11.197 17.5-24.62 33.85-33.96 45.12a4.136 4.136 0 0 1-5.775.566 4.15 4.15 0 0 1-.787-.854c-9.385-11.32-22.722-27.603-33.765-44.857C81.973 91.591 73 72.705 73 56.82c0-15.691 6.442-29.902 16.836-40.182C100.247 6.366 114.628 0 130.505 0zm34.868 22.378c-8.922-8.8-21.25-14.253-34.86-14.253s-25.937 5.452-34.851 14.261c-8.915 8.81-14.44 20.992-14.44 34.434 0 14.126 8.409 31.576 19.06 48.238 9.7 15.158 21.266 29.632 30.214 40.487 8.965-10.881 20.565-25.388 30.223-40.47 10.66-16.646 19.077-34.112 19.077-48.256 0-13.45-5.518-25.633-14.431-34.442h.008z"/><path d="M131.5 32c6.76 0 12.9 2.747 17.323 7.177v.017C153.253 43.625 156 49.756 156 56.5c0 6.744-2.748 12.875-7.177 17.306l-.017.017C144.375 78.253 138.244 81 131.5 81c-6.76 0-12.9-2.747-17.323-7.177A24.424 24.424 0 0 1 107 56.5c0-6.752 2.747-12.876 7.177-17.306v-.017A24.442 24.442 0 0 1 131.5 32zm11.557 12.943l-.01.01a16.293 16.293 0 0 0-11.548-4.78 16.293 16.293 0 0 0-11.548 4.78l-.009-.01a16.34 16.34 0 0 0-4.77 11.557c0 4.508 1.828 8.598 4.779 11.55a16.293 16.293 0 0 0 11.548 4.778 16.33 16.33 0 0 0 11.549-4.762l.017-.017a16.312 16.312 0 0 0 4.762-11.549 16.252 16.252 0 0 0-4.77-11.557zm45.924 211.021c0 2.23-2.01 4.036-4.49 4.036-2.48 0-4.491-1.807-4.491-4.036l.019-145.928c0-2.23 2.011-4.036 4.49-4.036 2.481 0 4.491 1.807 4.491 4.036l-.019 145.928zM81.972 205.948c0 2.239-2.008 4.052-4.486 4.052-2.477 0-4.486-1.814-4.486-4.052l.028-95.896c0-2.238 2.008-4.052 4.486-4.052 2.478 0 4.486 1.814 4.486 4.052l-.028 95.896z"/></g></svg>
